svgs/sharp-regular/chart-column.svg

<svg xmlns="http://www.w3.org/2000/svg" viewBox="0 0 512 512"><!--! Font Awesome Pro 6.6.0 by @fontawesome - https://fontawesome.com License - https://fontawesome.com/license (Commercial License) Copyright 2024 Fonticons, Inc. --><path d="M48 32l0 24 0 376 440 0 24 0 0 48-24 0L24 480 0 480l0-24L0 56 0 32l48 0zM192 224l0 24 0 80 0 24-48 0 0-24 0-80 0-24 48 0zm96-72l0 176 0 24-48 0 0-24 0-176 0-24 48 0 0 24zm96 40l0 24 0 112 0 24-48 0 0-24 0-112 0-24 48 0zM480 88l0 240 0 24-48 0 0-24 0-240 0-24 48 0 0 24z"/></svg>

<svg xmlns="http://www.w3.org/2000/svg" viewBox="0 0 512 512"><!--! Font Awesome Pro 6.4.2 by @fontawesome - https://fontawesome.com License - https://fontawesome.com/license (Commercial License) Copyright 2023 Fonticons, Inc. --><path d="M48 32V56 432H488h24v48H488 24 0V456 56 32H48zM192 224v24 80 24H144V328 248 224h48zm96-72V328v24H240V328 152 128h48v24zm96 40v24V328v24H336V328 216 192h48zM480 88V328v24H432V328 88 64h48V88z"/></svg>
